digitransit-component/packages/digitransit-component-icon/src/assets/search-speedtram-stop-default.svg

<svg width="24" height="24" viewBox="0 0 240 240" fill="none" xmlns="http://www.w3.org/2000/svg">
<rect x="108.75" y="165" width="22.5" height="60" rx="11.25" fill="#333333"/>
<circle cx="120" cy="97.5" r="82.5" fill="#007E79"/>
<path d="M74.9984 37.5H164.997C173.278 37.5 179.996 44.2226 179.996 52.4989V142.501C179.996 150.782 173.273 157.5 164.997 157.5H74.9984C66.7182 157.5 60 150.777 60 142.501V52.4989C60 44.2226 66.7224 37.5 74.9984 37.5Z" fill="#007E79"/>
<path d="M149.427 112.194L143.192 68.6579C142.777 65.5632 140.906 62.8793 138.214 61.6092C132.486 58.8999 126.564 57.8796 123.135 57.4647V52.1857H134.167C135.801 52.1857 137.126 50.8606 137.126 49.2265C137.126 47.5925 135.801 46.2674 134.167 46.2674H106.007C104.373 46.2674 103.048 47.5925 103.048 49.2265C103.048 50.8606 104.373 52.1857 106.007 52.1857H117.056V57.4647C113.61 57.8796 107.688 58.8999 101.96 61.6092C99.2676 62.8835 97.4092 65.5675 96.9944 68.6579L90.7588 112.19C90.2931 115.462 90.6106 118.807 91.652 121.927C92.2701 123.777 93.4258 127.511 94.1285 129.335C95.1191 131.909 97.3627 133.721 99.9111 134.381C104.547 135.584 111.464 136.625 120.087 136.625C128.71 136.625 135.627 135.584 140.262 134.381C142.815 133.721 145.054 131.909 146.045 129.335C146.748 127.515 147.903 123.781 148.522 121.927C149.563 118.807 149.893 115.462 149.427 112.19V112.194ZM143.823 118.295L142.248 123.138C141.846 124.365 141.206 124.67 140.241 124.962C138.053 125.623 128.799 127.197 120.087 127.261C111.371 127.197 102.138 125.623 99.9492 124.962C98.9882 124.67 98.349 124.365 97.9469 123.138L96.3721 118.295C96.0123 117.202 96.9182 116.428 98.1374 116.758C101.913 117.782 106.109 118.637 109.601 119.323C110.659 119.531 111.641 120.187 112.103 121.131C112.645 122.24 113.728 123.002 114.888 123.074C116.476 123.176 118.33 123.235 120.087 123.235C121.844 123.235 123.694 123.176 125.281 123.074C126.441 123.002 127.525 122.236 128.066 121.131C128.532 120.187 129.514 119.531 130.568 119.323C134.057 118.637 138.273 117.782 142.045 116.758C143.268 116.428 144.174 117.202 143.814 118.295H143.823ZM141.418 109.836C136.393 111.445 128.405 113.193 120.091 113.193C111.777 113.193 103.793 111.449 98.7723 109.836C97.659 109.481 96.969 108.371 97.1341 107.211L101.541 76.4261C101.685 75.4271 102.438 74.6227 103.429 74.4195C107.76 73.522 113.661 72.6881 120.091 72.6881C126.521 72.6881 132.435 73.522 136.766 74.4195C137.756 74.6227 138.51 75.4271 138.654 76.4261L143.061 107.211C143.226 108.371 142.536 109.476 141.422 109.836H141.418ZM137.134 139.55C135.043 139.978 132.698 140.317 130.31 140.575C130.31 140.575 134.848 145.977 136.038 147.399C137.574 149.232 138.823 149.821 140.584 149.821C142.578 149.821 144.352 148.347 142.252 145.727C141.223 144.44 137.134 139.55 137.134 139.55ZM103.056 139.55C105.148 139.978 107.493 140.317 109.88 140.575C109.88 140.575 105.342 145.977 104.153 147.399C102.616 149.232 101.367 149.821 99.6063 149.821C97.6124 149.821 95.8387 148.347 97.9384 145.727C98.9671 144.44 103.056 139.55 103.056 139.55Z" fill="white"/>
</svg>

<svg xmlns="http://www.w3.org/2000/svg" width="24" height="24" fill="none" viewBox="0 0 240 240">
 <rect width="22.5" height="60" x="108.75" y="165" fill="#333" rx="11.25"/>
 <circle cx="120" cy="97.5" r="82.5" fill="#007e79"/>
 <path fill="#007e79" d="M74.998 37.5h89.999c8.281 0 14.999 6.723 14.999 14.999V142.5c0 8.281-6.723 14.999-14.999 14.999H74.998c-8.28 0-14.998-6.723-14.998-14.999V52.499C60 44.223 66.722 37.5 74.998 37.5"/>
 <path fill="#fff" d="m149.427 112.194-6.235-43.536c-.415-3.095-2.286-5.779-4.978-7.049-5.728-2.71-11.65-3.73-15.079-4.144v-5.28h11.032a2.96 2.96 0 0 0 0-5.918h-28.16a2.96 2.96 0 0 0 0 5.919h11.049v5.279c-3.446.415-9.368 1.435-15.096 4.144-2.692 1.274-4.55 3.958-4.966 7.049L90.76 112.19a21.3 21.3 0 0 0 .893 9.737c.618 1.85 1.774 5.584 2.477 7.408.99 2.574 3.234 4.386 5.782 5.046 4.636 1.203 11.553 2.244 20.176 2.244s15.54-1.041 20.175-2.244c2.553-.66 4.792-2.472 5.783-5.046.703-1.82 1.858-5.554 2.477-7.408a21.3 21.3 0 0 0 .905-9.737zm-5.604 6.101-1.575 4.843c-.402 1.227-1.042 1.532-2.007 1.824-2.188.661-11.442 2.235-20.154 2.299-8.716-.064-17.949-1.638-20.138-2.299-.96-.292-1.6-.597-2.002-1.824l-1.575-4.843c-.36-1.093.546-1.867 1.765-1.537 3.776 1.024 7.972 1.879 11.464 2.565 1.058.208 2.04.864 2.502 1.808.542 1.109 1.625 1.871 2.785 1.943a84 84 0 0 0 10.393 0c1.16-.072 2.244-.838 2.785-1.943.466-.944 1.448-1.6 2.502-1.808 3.489-.686 7.705-1.541 11.477-2.565 1.223-.33 2.129.444 1.769 1.537zm-2.405-8.459c-5.025 1.609-13.013 3.357-21.327 3.357s-16.298-1.744-21.319-3.357a2.396 2.396 0 0 1-1.638-2.625l4.407-30.785a2.395 2.395 0 0 1 1.888-2.007c4.331-.897 10.232-1.73 16.662-1.73s12.344.833 16.675 1.73a2.4 2.4 0 0 1 1.888 2.007l4.407 30.785a2.4 2.4 0 0 1-1.639 2.625zm-4.284 29.714c-2.091.428-4.436.767-6.824 1.025 0 0 4.538 5.402 5.728 6.824 1.536 1.833 2.785 2.422 4.546 2.422 1.994 0 3.768-1.474 1.668-4.094-1.029-1.287-5.118-6.177-5.118-6.177m-34.078 0c2.092.428 4.437.767 6.824 1.025 0 0-4.538 5.402-5.727 6.824-1.537 1.833-2.786 2.422-4.547 2.422-1.994 0-3.767-1.474-1.668-4.094 1.03-1.287 5.118-6.177 5.118-6.177"/>
</svg>
